X:1
T:Air on G
T:Johann Sebastian Bach
%%score ( 1 2 3 ) 4
L:1/8
M:4/4
K:G
V:1 treble-8 nm="Guitar" snm="Guit."
V:2 treble-8 
V:3 treble-8 
V:4 treble nm="Violin" snm="Vln."
V:1
!mp! z2 g2 f4 | z2 e2 d4 | z2 c2 ^c4 | z2 d2 ^c4 | D2 FE F2 dF | E4- E4 | z2 AG ABcA | D4 d4 | %8
 z2 G2 F2 A2 | B2 ^cd e2 [Ac]2 | [Af]2 [DB]2 d2 ^c2 | [Fd]2 z2 z4 :| z2 d2 c4 | de (=f2 f)edc | %14
 BcdB =G2 [Ge]2 | z2 A2 ^G4 | z GAB cBcA | z gfe ^de f2 | z2 cB c2 [B^d]A | [GB]2 e2 =d4 | %20
 z2 ^c2 d2 B2 | ^c2 AB cd e2 | ^c2 d4 c2 | [Fd]3 z FGAF | z2 e=f e^f g2- | g2 fe f^g a2 | %26
 z2 ^gf ga b2- | b^gae AecA | z DAc B2 d2- | d2 fg [GB]4 | G2 A2 B2 d2 | z2 c2 B4 | AEAc edcB | %33
 Agfe d2 [ce]2 | [Bd]4 [Fc]B c2 | [DB]8 |] %36
V:2
 [G,G]4 z2 F2 | [E,E]4 z2 D2 | [CE]4 z2 ^C2 | D4 z2 =C2 | B,4 A,4 | ^G,2 =G,4 E,2 | [A,c]4 G,4 | %7
 F,2 F,4 D2 | G,6 F,2 | [E,G]4 ^C2 A,2 | D2 G,2 [A,E]4 | DE,F,G, A,CB,A, :| D4 z2 C2 | %13
 B,2 ^GA B2 z2 | ^G4 B,2 E,2 | A,6 G,2 | F,4 E,4 | ^D4 F2 D2 | [E,GB]2 C2 A,2 B,2 | E,2 z2 z2 D2 | %20
 ^C4 [B,G]4 | A,4 G2 G,2 | A,2 F2 G2 A2 | D2 DG =C4 | B,4 C4 | ^C4 D4 | ^D4 E4 | A,4 =G,4 | %28
 ^F,4 D2 F2 | G4 [=F,D]2 =F2 | E4 D4 | [CEG]4 z2 B,2 | A,4 G,4 | F,2 D2 G,2 C2 | D2 C2 D4 | G,8 |] %36
V:3
 x8 | x8 | x8 | x8 | x8 | x8 | x8 | x8 | x8 | x8 | x8 | x8 :| x8 | x8 | x8 | [Ec]8 | x8 | x8 | x8 | %19
 x8 | x8 | x8 | x8 | x8 | x8 | x8 | x8 | x8 | x8 | x8 | x8 | x8 | x8 | x8 | x8 | x8 |] %36
V:4
!mp!!<(! B8-!<)! |!>(! B8-!>)! | (!breath!B2 ec{/B} AGFG |{/G} F3 E D4) |!<(! (d8-!<)! | %5
 dB=FE A!>(!^Gdc!>)! |!<(! c8!<)! | !breath!c)(AED =GF!>(!cB!>)! |!<(! B6) (^cd)!<)! | %9
 G2 G/A/B- BAAG | FE E/F/G- G2 FE |!>(! D8!>)! :| F4- F(G/F/ E/F/D | d6) (=F2 | D2 e2- edcB | %15
 c4- c/)(B/A/G/ FE | ^DE F2- FG A2- | AB !breath!c4) (B2 | AGFE FG/A/ GF | E8) | (G4- GBAG | %21
 !breath!e6) (d^c | B/A/d D2 E2- EF/G/ | F3 E D4) | (G6 BA | A6) (cB | B6) (dc | c8) | (D4- DFAc | %29
 cA !breath!B4) (Bc/d/ | G4- GBd=f | =f2 !breath!e4) (G2 | FA c4 E2 | !breath!D2) AB/c/- c B2 A | %34
 G/F/E- EF F-F/E/ F>G | G8 |] %36

